theme/essential/pix_core/e/source_code.svg

<!DOCTYPE svg PUBLIC "-//W3C//DTD SVG 1.1//EN" "http://www.w3.org/Graphics/SVG/1.1/DTD/svg11.dtd" [
	<!ENTITY ns_flows "http://ns.adobe.com/Flows/1.0/">
]><svg xmlns="http://www.w3.org/2000/svg" width="16" height="16" viewBox="0 -3.4 16 16" preserveAspectRatio="xMinYMid meet" overflow="visible" enable-background="new 0 -3.4 16 16"><path d="M6.9 0l-4.6 4.6 4.6 4.6h-2.3l-4.6-4.6 4.6-4.6h2.3zm9.1 4.6l-4.6 4.6h-2.3l4.6-4.6-4.6-4.6h2.3l4.6 4.6z" fill="#999"/></svg>

<!DOCTYPE svg PUBLIC "-//W3C//DTD SVG 1.1//EN" "http://www.w3.org/Graphics/SVG/1.1/DTD/svg11.dtd" [
	<!ENTITY ns_flows "http://ns.adobe.com/Flows/1.0/">
]><svg xmlns="http://www.w3.org/2000/svg" width="16" height="16" viewBox="0 -3.4 16 16" preserveAspectRatio="xMinYMid meet" overflow="visible" enable-background="new 0 -3.4 16 16"><path d="M6.9 0L2.3 4.6l4.6 4.6H4.6L0 4.6 4.6 0h2.3zM16 4.6l-4.6 4.6H9.1l4.6-4.6L9.1 0h2.3L16 4.6z" fill="#999"/></svg>
